pitch-roulette/src/img/control_icon/share.svg

<svg width="18" height="17" viewBox="0 0 18 17" fill="none" xmlns="http://www.w3.org/2000/svg">
<g clip-path="url(#clip0)">
<path d="M17.2841 9.17627H11.4063C11.1498 9.17627 10.9404 9.38404 10.9404 9.63856C10.9404 9.76842 10.998 9.88789 11.0818 9.971L15.2219 14.0797C15.3056 14.1732 15.4313 14.2251 15.5621 14.2251C15.7244 14.2251 15.8657 14.142 15.9494 14.0225C16.9648 12.8486 17.6191 11.3631 17.7395 9.72167C17.7447 9.6957 17.7499 9.66453 17.7499 9.63856C17.7499 9.38404 17.5406 9.17627 17.2841 9.17627Z" fill="white"/>
<path d="M9.63195 0.79248C9.37548 0.79248 9.16612 1.00025 9.16612 1.25477V7.73726C9.16612 7.99178 9.37548 8.19955 9.63195 8.19955H16.164C16.4205 8.19955 16.6299 7.99178 16.6299 7.73726C16.3996 4.00775 13.39 1.02103 9.63195 0.79248Z" fill="white"/>
<path d="M13.2225 13.7003L8.40195 8.91632C8.31821 8.83321 8.2711 8.71893 8.2711 8.59427V1.84169C8.2711 1.58717 8.06174 1.37939 7.80527 1.37939C3.8902 1.61314 0.791641 4.84399 0.791641 8.78646C0.791641 12.8848 4.14143 16.2091 8.2711 16.2091C10.1554 16.2091 11.8774 15.5183 13.1911 14.3755C13.2906 14.2924 13.3586 14.1626 13.3586 14.0223C13.3534 13.8976 13.3063 13.7834 13.2225 13.7003Z" fill="white"/>
</g>
<defs>
<clipPath id="clip0">
<rect width="16.9583" height="15.4167" fill="white" transform="translate(0.791641 0.79248)"/>
</clipPath>
</defs>
</svg>

<svg width="18" height="17" fill="none" xmlns="http://www.w3.org/2000/svg"><g clip-path="url(#prefix__a)" fill="#fff"><path d="M17.284 9.176h-5.878a.465.465 0 0 0-.466.463c0 .13.058.249.142.332l4.14 4.109a.474.474 0 0 0 .728-.057 7.378 7.378 0 0 0 1.79-4.301.454.454 0 0 0 .01-.083.465.465 0 0 0-.466-.463zM9.632.792a.465.465 0 0 0-.466.463v6.482c0 .255.21.463.466.463h6.532a.465.465 0 0 0 .466-.463c-.23-3.73-3.24-6.716-6.998-6.945z"/><path d="M13.223 13.7 8.402 8.916a.45.45 0 0 1-.13-.322V1.842a.465.465 0 0 0-.467-.463C3.89 1.613.792 4.844.792 8.786c0 4.099 3.35 7.423 7.48 7.423a7.47 7.47 0 0 0 4.92-1.833.467.467 0 0 0 .167-.354.476.476 0 0 0-.136-.322z"/></g><defs><clipPath id="prefix__a"><path fill="#fff" transform="translate(.792 .792)" d="M0 0h16.958v15.417H0z"/></clipPath></defs></svg>
